X: 14
T: LOCOMOTIVE
%R: hornpipe
B: Jean White "100 Popular Hornpipes, Reels, Jigs and Country Dances", Boston 1880 p.6
F: http://www.loc.gov/resource/sm1880.09124.0#seq-1
Z: 2014 John Chambers <jc:trillian.mit.edu>
M: C|
L: 1/8
K: C
% - - - - - - - - - - - - - - - - - - - - - - - - - - - - -
c>d |\
e>dc>B c>GE>G | e>dc>B c>GE>G |\
A>cf>e d>cB>c | (3dec (3BcA G>Bc>d |
e>dc>B c>GE>G | e>dc>B A>cf>a |\
a>g^f>g =f>dg>f | e2c2 c2 :|
|: B>c |\
d>cB>c d2g2 | e>dc>d e2g2 |\
f>ef>g a>gf>e | (3ded (3cBA (3GAG (3FED |
C>EG>c e>ge>c | f>ef>g a2g>f |\
(3egf (3edc (3Bag (3fed | e2[c2E2] [c2E2] H:|
% - - - - - - - - - - - - - - - - - - - - - - - - - - - - -

%%sep 1 1 500
%%sep 1 1 500
